public/images/flags/SW.svg

<svg width="21" height="15" viewBox="0 0 21 15" fill="none" xmlns="http://www.w3.org/2000/svg">
<path d="M2 0H19C19.5304 0 20.0391 0.210712 20.4142 0.585785C20.7893 0.960858 21 1.46957 21 2V13C21 13.5304 20.7893 14.0391 20.4142 14.4142C20.0391 14.7893 19.5304 15 19 15H2C1.46957 15 0.960858 14.7893 0.585785 14.4142C0.210712 14.0391 0 13.5304 0 13V2C0 1.46957 0.210712 0.960858 0.585785 0.585785C0.960858 0.210712 1.46957 0 2 0Z" fill="#217AB7"/>
<path d="M21 9H9V15H6V9H0V6H6V0H9V6H21V9Z" fill="#FCD669"/>
</svg>

<svg width="21" height="15" fill="none" xmlns="http://www.w3.org/2000/svg"><path d="M2 0h17a2 2 0 0 1 2 2v11a2 2 0 0 1-2 2H2a2 2 0 0 1-2-2V2a2 2 0 0 1 2-2z" fill="#217AB7"/><path d="M21 9H9v6H6V9H0V6h6V0h3v6h12v3z" fill="#FCD669"/></svg>
